X: 40765
T: Tourish's Tour Around The Box
R: reel
M: 4/4
K: Cmajor
DE|:=FEFG cFAF|dGBd d^cAB|=cBcF AcBc|BGG^F GFDE|=FEFG cFAF|
dGBd d^cAB|1 =cBce d^cAG|^FA^ce d2DE:|2 =cBce de^fa|a^ged ^ceA2||
|:_BAGA =BcdB|d^cAG ^FDDE|=FECE ^FGAD|^FGAB GFGA|
_BABd c=Bce|de^fa gfga|(3_bag (3ag^f gd (3_edc|1 =Bc^fa g2 GA:|2 =BGG^F G2||

